src/icons/journal.svg

<svg clip-rule="evenodd" fill-rule="evenodd" stroke-linejoin="round" stroke-miterlimit="2" viewBox="0 0 40 40" xmlns="http://www.w3.org/2000/svg"><path d="m5.5 31.2v-22.4h29v22.4zm1-1h13v-20.4h-13zm14 0h13v-20.4h-13zm2.5-14.3h8v-1.1h-8zm0 4.2h8v-1.1h-8zm0 4.3h8v-1.1h-8zm-16.5-14.6v20.3z" fill-rule="nonzero"/></svg>

<?xml version="1.0" encoding="utf-8"?>
<!-- Generator: Adobe Illustrator 27.9.0, SVG Export Plug-In . SVG Version: 6.00 Build 0)  -->
<svg version="1.1" id="Layer_1" xmlns="http://www.w3.org/2000/svg" xmlns:xlink="http://www.w3.org/1999/xlink" x="0px" y="0px"
	 viewBox="0 0 40 40" style="enable-background:new 0 0 40 40;" xml:space="preserve">
<path d="M5.5,31.2V8.8h29v22.3h-29V31.2z M6.5,30.2h13V9.8h-13V30.2z M20.5,30.2h13V9.8h-13V30.2z M23,15.9h8v-1.1h-8V15.9z
	 M23,20.1h8V19h-8V20.1z M23,24.4h8v-1.1h-8V24.4z M6.5,9.8v20.3V9.8z"/>
</svg>
